base/lib/resources/icons_svg/delete_off.svg

<svg id="Calque_1" data-name="Calque 1" xmlns="http://www.w3.org/2000/svg" viewBox="0 0 24 24"><defs><style>.cls-1{fill:#3d3d3d;}.cls-2{fill:#000100;}.cls-3{fill:#fff;}</style></defs><title>boutons</title><rect class="cls-1" x="0.5" y="0.5" width="23" height="23"/><path class="cls-2" d="M24,24H0V0H24V24ZM1,23H23V1H1V23Z"/><path class="cls-3" d="M9.67,6.86h1V6h2.79V6.87h0.94A2.14,2.14,0,0,0,12,5h0A2.14,2.14,0,0,0,9.67,6.86m-0.8,1h-2V9.67h1V18a1,1,0,0,0,1,1h6.31a1,1,0,0,0,1-1h0V9.67h0.92V7.81H8.87Zm5.48,2.8h0.93v5.6H14.35v-5.6Zm-1.87,0h0.93v5.6H12.49v-5.6Zm-1.87,0h0.93v5.6H10.62v-5.6Zm-1.87,0H9.69v5.6H8.75v-5.6Z"/></svg>

<?xml version="1.0" encoding="utf-8"?>
<!-- Generator: Adobe Illustrator 21.0.2, SVG Export Plug-In . SVG Version: 6.00 Build 0)  -->
<svg version="1.1" id="Calque_1" xmlns="http://www.w3.org/2000/svg" xmlns:xlink="http://www.w3.org/1999/xlink" x="0px" y="0px"
	 viewBox="0 0 24 24" style="enable-background:new 0 0 24 24;" xml:space="preserve">
<style type="text/css">
	.st0{display:none;fill:#3D3D3D;}
	.st1{display:none;fill:#000100;}
	.st2{fill:#FFFFFF;}
</style>
<title>boutons</title>
<rect x="0.5" y="0.5" class="st0" width="23" height="23"/>
<path class="st1" d="M24,24H0V0h24V24z M1,23h22V1H1V23z"/>
<path class="st2" d="M9.7,6.9h1V6h2.8v0.9h0.9c-0.1-1.2-1.2-2-2.4-1.9c0,0,0,0,0,0l0,0C10.8,4.9,9.8,5.7,9.7,6.9 M8.9,7.9h-2v1.8h1
	V18c0,0.6,0.4,1,1,1h6.3c0.6,0,1-0.4,1-1l0,0V9.7h0.9V7.8L8.9,7.9L8.9,7.9z M14.4,10.7h0.9v5.6h-0.9V10.7z M12.5,10.7h0.9v5.6h-0.9
	L12.5,10.7L12.5,10.7z M10.6,10.7h0.9v5.6h-0.9L10.6,10.7L10.6,10.7z M8.7,10.7h0.9v5.6H8.8L8.7,10.7L8.7,10.7z"/>
</svg>
